X: 100284
T: BLACK JOCK, WITH VARIATIONS
C: Arranged by W. B. Laybourn
R: jig
P: For violin in standard G,DAe tuning; the original A,EAe "scordatura" version is X:32071.
N: The original was "scordatura", with the notes below A written a whole step lower.
B: K\"ohler's Violin Repository, v.3, 1885 p.207-210
F: http://www.archive.org/details/klersviolinrepos03rugg
Z: 2012 John Chambers <jc:trillian.mit.edu>
N: Added dots to last notes when next phrase has no pickup note.
M: 6/8
L: 1/8
% Scale this tune set to fit on two "letter" pages:
%%scale 0.60
K: A
% --------------------------------------------------
% Page 207:
uE |\
(E2A) A>GA | (.B2.B) {Bc}B>AB | (.c2.c) c>BA | (.B2.B) BAG |\
A3 (F2{GF}E) | E>FG A2 || ud | (c2{dcBc}d) (.e2.e) | fdf {ef}(u.e2u.d) |
(c2{dcBc}d) (.e2.e) | f>ga {ef}(.d2.c) | (.d2.b) (.c2.a) | B>cB B>AB |\
c>dc c>BA | B>cB BAF | A3 (F2{EF}E) | EFG A2 |]
P: Var.1
uE |\
A,3A- AGA | BAB (B2{cB}A) | A,>df edc | Bdc BAF |\
A3 (F2{GF}E) | E>FG A2 || ud | cAc edc | d2(e f)ed |
cAc edc | agf edc | dcd (d/e/)fe | edc (B2{cB}A) |\
cea edc | Bdc BAF | A3 (F2{GF}E) | EFG A2 |]
P: Var.2
uE |\
A,2A- AGA | (.B,2.B) (B2{cB}A) | A,2e- edc | Bdc BAF |\
A3 FdB | EFG A2 || ue | A,2(c e)dc | d2(e f)ed |
A,2(c e)dc | agf edc | d(bd) c(ac) | BcB {Bc}B>AB |\
ced cBA | Bdc BAF | AcA FAF | EAG A3 |]
P: Var.3
[|\
(cAc) A/(B/c)A & E3 E3 | (BAB) (B2{cB}A) & E3 E3 | cde agf | edc BAF |\
A3 (F2{GF}E) | EFG A2 || ud | c2{dcBc}d edc | fed edc |
cde efe | (f/e/f/g/a) edc | (dgb) (cea) | BAB (B2{cB}A) |\
(f2a) eca | Bdc BAG | ABc FGA | EFG A3 |]
P: Var.4
[|\
AAA AA,A | BBB (B2{cB}A) | ccc cA,c | BBB BAF |\
A(c/B/)A (F2{GF}E) | EFG A2 || z | veee ecA | fdA ecA |
% --------------------------------------------------
% Page 208:
eee ecA | acA ecA | [dF]dd [cF]cc | [BF]BB (B2{cB}A) |\
fdf eca | Bdc BAF | A(c/B/)A (F2{GF}E) | EFG A3 |]
P: Var.5
(ve2a) (A2c) | BAB (B2{cB}A) | cde (d2c) | BAB BAF |\
A3 (F2d) | EFG A3 || eAc (.e2.a) | fAd (.f2.a) |
eAc (e2a) |fAd (f2a) | (d>ef/g/) agf | edc (B2{cB}A) |\
cAe- e(ca) | Bdc BAF | A3- AGF | EFG A3 ||
P: Var 6.
.A,>(EA/E/) .A,>(EA/E/) | .A,>(EB/E/) .A,>(EB/E/) |\
.A,>(Ec/E/) .A,>(Ec/E/) | .A,>(EB/E/) .A,>(EB/E/) |\
.C>(EA/E/) .D>(FA/F/) | (B,>GB/G/) [A,EA]3 ||\
[AA,]>(ce/c/) [AA,]>(ce/c/) |
[AA,]>(df/d/) (eac) |\
[AA,]>(ce/c/) [AA,]>(ce/c/) | [AA,]>(df/d/) (eac) |\
.d(Ed) .c(Ec) | .B(EB) .B(EB) | cEc- c(BA) | BEB- B(AG) |\
AEC DFA | (B,EG) [AEA,]3 ||
P: Var.7
vc3 (cBd) & E3 E3 | (cAc) (B2{cB}A) & E3 E3 |\
cde (d2c) | BAB BAF | A3 (F3{GF}E) | EFG A3 ||\
(vc/d/)eA edc | fed (e2{fe}d) |
(c/d/)eA edc | (f/e/f/g/a) {ef}ue2uc |\
(d/e/)fd (c/d/)ec | (B/c/)dc (B2{cB}A) |\
a>bc' edc | (B/A/B/c/d/c/) BAF |\
(A>Bc/B/) AFE | EFG A3 ||
P: Var.8
.A(EA) .A(EA) | .B(EB) .B(EB) | .c(Ec) .c(Ec) | .B(EB) .B(EB) |\
AcA FAF | EAG A3 || .e(Ae) .e(Ae) | .f(Af) .f(Af) |
.e(Ae) .e(Ae) | .a(Aa) .a(Aa) | dgb cea | .B(EB) .B(cB) |\
.c(Ec) .c(ec) | .B(EB) .B(eg) | a3 (f2{gf}e) | efg a3 ||
% --------------------------------------------------
% Page 209:
P: Var.9
A,B,CDEF | GAB cde | Ac'b agf | edc BAF |\
A3 FdB | EFG A3 || (vc/d/)(eA) e(c/d/e/c/) | f(d/e/f/d/) e2d |
(c/d/)(ec) e(c/d/e/c/) | f(d/e/f/d/) e(c/d/e/c/) |\
f(d/e/f/d/) g(e/f/g/e/) | a(f/g/a/f/) e(d/c/B/A/) |\
f/g/a/g/f/e/ d2c | Bdc BAF | ABc FGA | EFG A3 ||
P: Var.10
({AB}A>GA) ({AB}A>GA) & A,3 A,3 | ({Bc}[BE]A.B) ({Bc}[BE]A.B) |\
({cd}[cE]A.c) ({cd}[cE]A.c) | ({Bc}[BE]A.B) BAF |\
A3 A3 &A3 (F2E) | A3 A3 & EFG A3 || veAc Ae=g | fdA Adf |
ecA Ace | fdf ecA | dB,(d c)A,(c | B)EB (B2A) |\
cA,c- c(BA) | BEB- B(AG) | A3- A(GF) | EFG A3 ||
P: Var.11
vea(g a)(Aa) | b(Ab) b(Ab) | c'(Ac') c'(Ac') | b(Ab) b(ag) |\
a3 (f2{gf}e) | efg a2 || d' | c'(Ac') e'(d'c') | d'(Ad') f'(e'd') |
c'(Ac') e'(d'c') | d'(Ad') f'(e'd') | e'(Ae') d'(Ad') | c'(Ac') b(Ab) |\
c'(Ac') c'(Ac') | b(Ab) b(ag) | a3 (f2{gf}e) | efg a3 ||
P: Var.12
(v.E2.E) E3 & A,2A, (A,B,A,) | (.E2.E) E3 & B,2B, (B,CB,) |\
(.E2.E) E3 & C2C (CB,A,) | E3 G3 & (B,CB,) B,3 |\
% --------------------------------------------------
% Page 210:
[AC]3 [FD]3 | [EC][FD][GB,] [AA,]2 || ud |\
(c2d) (.e2.e) & E3 E3 | (.f2.f) (e2d) & E3 E3 |
(cec) (ece) & E3 E3 | (fdf) (ece) & E3 E3 |\
(dfd) (cec) & E3 E3 | (BcB) (BAB) & E3 E3 |\
(c>dc) (c>BA) & E3 E3 | (BcB) [g3B3] & E3 x3 |\
[a3c3] [f3d3] | [ec][fd][gB] [ac]2 ||
P: Var 13
uE |\
E(A/G/)A/B/ A/E/G/E/A/E/ | (.B2.B) (B/E/)A/E/B/E/ |\
(c/B/)c/d/c (c/E/)B/E/A/E/ | (B/A/)B/c/B (B/A/)B/c/d/B/ |\
A2(E F/E/)F/G/A/F/ | (E/A,/)F/A,/G/A, A2 || ud |
(c/A/)c/A/d/A/ (.e2.e) | (f/d/)f/g/a/f/ {ef}(.e2.d) |\
(c/A/)c/A/d/A/ (.e2.e) | (f/d/)f/g/a/f/ {ef}(.e2.c) | d/g/b/(d/c/B/) c/e/a/(c/B/A/) |
(B/E/)c/E/B/E/ {Bc}B2A/B/ | (c/E/)d/E/c/E/ {cd}c2B/A/ |\
(B/E/)c/E/B/E/ (B/d/)c/B/A/G/ | A2(E F/E/)F/G/A/F/ | (E/A,/)F/A,/G/A,/ A3 ||
P: Var.14
A,CE ABc | EGB dcB | EAc edc | Bdc BAG |\
AEC DFA | B,EG A3 || vEAc edc | d2(e f)ed |
EAc edc | agf edc | dfd cec | Bdc (B2{cB}A) |\
(c/A/B//c//d//e//f//g// a)(.g.f) | edc BAG | AGF EDC | DCB, "^Fine"u[AEA,]2 |]

%%sep 2 1 500

